X: 10321
T: The BANKS OF DOON
Q: "Slow"
%R: jig
B: "Edinburgh Repository of Music" v.1 p.32 #1
F: http://digital.nls.uk/special-collections-of-printed-music/pageturner.cfm?id=87776133
Z: 2015 John Chambers <jc:trillian.mit.edu>
M: 6/8
L: 1/8
K: G
D |\
G2G A>GA | B>cB A>GA | B>AG F<ED | D>EG A2B/A/ |\
G2G A>GA | B<dB AGA | B>AG GED | DEG G2 :|
|: B/c/ |\
d2e dBG | d2e dBG | dBG dBG | e>dB A>cB/A/ |\
G2G AGA | BdB AGA | B>AG G<ED | D>EG ~G2 :|

%%sep 2 1 500
%%sep 1 1 500

